X:4122
T:Devil's Dream. BF11.54
M:4/4
L:1/8
Q:200
C:In hand "B"
S:MS11,c1850.,Browne Coll.,Lakes
R:Reel
O:England
A:Lakes
N:In a different hand.See 70..CGP
Z:vmp.Chris Partington
K:A
f|eaga eaga|eaga fedc|dfBf dfBf|dfBf edcB|!
eaga eaga|eaga fedc|defg a2gf|edcBA3::!
z|ceAe ceAe|ceAe fedc|dfBf dfBf|dfBf edcB|!
ceAe ceAe|ceAe fedc|defga2gf|edcBA3::!
g|aece aece|aece agfe|bfdf bfdf|bfdf bagf|!
aece aece|aece aedc|defga2gf||edcBA2:|]
